images/TESLA_LOGO.svg

<svg width="194" height="25" viewBox="0 0 194 25" fill="none" xmlns="http://www.w3.org/2000/svg">
<g opacity="0.7">
<path d="M165.836 9.91736V25H170.704V14.9449H188.506V25H193.374V9.91736H165.836ZM170.147 5.02755H188.923C191.566 4.54545 193.444 2.20386 194 0H165.071C165.627 2.20386 167.574 4.47658 170.147 5.02755ZM151.024 25C153.458 23.9669 154.779 22.1763 155.335 20.1102H133.43V0.0688705H128.492V25H151.024V25ZM91.9833 4.95868H109.369C112.011 4.2011 114.167 2.20386 114.723 0.0688705H87.185V14.8072H109.716V19.9725H92.0528C89.2712 20.73 86.9068 22.5895 85.7246 25H114.584V9.91736H92.0528L91.9833 4.95868ZM49.146 5.02755H67.9221C70.5647 4.54545 72.5118 2.20386 72.9986 0H44C44.5563 2.20386 46.5035 4.47658 49.146 5.02755ZM49.146 14.876H67.9221C70.5647 14.3939 72.5118 12.0523 72.9986 9.84849H44C44.5563 12.0523 46.5035 14.3251 49.146 14.876ZM49.146 25H67.9221C70.5647 24.5179 72.5118 22.1763 72.9986 19.9725H44C44.5563 22.1763 46.5035 24.5179 49.146 25Z" fill="#828282"/>
<path d="M0 0.0693049C0.560175 2.27925 2.52079 4.48919 5.1116 5.04168H13.0941L13.5142 5.1798V25.0002H18.4858V5.1798L18.9059 5.04168H26.8884C29.5492 4.35107 31.4398 2.27925 32 0.0693049V0.000244141L0 0.0693049Z" fill="#828282"/>
</g>
</svg>

<svg width="194" height="25" fill="none" xmlns="http://www.w3.org/2000/svg"><g opacity=".7" fill="#828282"><path d="M165.836 9.917V25h4.868V14.945h17.802V25h4.868V9.917h-27.538zm4.311-4.89h18.776C191.566 4.546 193.444 2.205 194 0h-28.929c.556 2.204 2.503 4.477 5.076 5.028zM151.024 25c2.434-1.033 3.755-2.824 4.311-4.89H133.43V.07h-4.938V25h22.532zM91.984 4.959h17.385c2.642-.758 4.798-2.755 5.354-4.89H87.185v14.738h22.531v5.165H92.053c-2.782.758-5.146 2.617-6.328 5.028h28.859V9.917H92.053l-.07-4.958zm-42.838.069h18.776C70.565 4.545 72.512 2.204 73 0H44c.556 2.204 2.504 4.477 5.146 5.028zm0 9.848h18.776c2.643-.482 4.59-2.824 5.077-5.028H44c.556 2.204 2.504 4.477 5.146 5.028zm0 10.124h18.776c2.643-.482 4.59-2.824 5.077-5.027H44c.556 2.203 2.504 4.545 5.146 5.027zM0 .07c.56 2.21 2.52 4.42 5.112 4.972h7.982l.42.138V25h4.972V5.18l.42-.138h7.982C29.55 4.352 31.44 2.279 32 .069V0L0 .07z"/></g></svg>
